!!!OTL: MAIKAEFER FLIEG
!!!ARE: Europa, Mitteleuropa, Deutschland, Weissenfels
!!!SCT: E1850
!!!YEM: Copyright 1995, estate of Helmut Schaffrath.
**kern
*ICvox
*Ivox
*M2/4
*k[f#]
*G:
=1
{4dd
8cc
8a
=2
4g
8r}
{8dd
=3
8dd
8dd
8cc
8a
=4
4g
8r}
{8b
=5
8b
8b
8b
8b
=6
8a
8dd
8dd}
{8dd
=7
8dd
8dd
8cc
8a
=8
8g
8g
8g
8r}
==
!!!AGN: Kinder - Lied, Tier - Lied
!!!ONB: ESAC (Essen Associative Code) Database: ERK3
!!!AMT: simple duple
!!!AIN: vox
!!!EED: Helmut Schaffrath
!!!EEV: 1.0
*-
